icons/copy.svg

<svg xmlns="http://www.w3.org/2000/svg" width="96" height="96"><path d="M31.6 8h48.8c2 0 3.9.8 5.4 2.2 1.4 1.5 2.2 3.4 2.2 5.4v48.8c0 2-.8 3.9-2.2 5.4-1.5 1.4-3.4 2.2-5.4 2.2H31.6c-2 0-3.9-.8-5.4-2.2-1.4-1.5-2.2-3.4-2.2-5.4V15.6c0-2 .8-3.9 2.2-5.4C27.7 8.8 29.6 8 31.6 8zM80 64H32V16h48v48zM68 80c1.1 0 2.1.4 2.8 1.2.8.7 1.2 1.7 1.2 2.8 0 1.1-.4 2.1-1.2 2.8-.7.8-1.7 1.2-2.8 1.2H15.6c-2 0-3.9-.8-5.4-2.2C8.8 84.3 8 82.4 8 80.4V28c0-1.1.4-2.1 1.2-2.8.7-.8 1.7-1.2 2.8-1.2 1.1 0 2.1.4 2.8 1.2.8.7 1.2 1.7 1.2 2.8v52h52zm-52 0" fill-rule="evenodd" fill="#454545"/></svg>

<?xml version="1.0" standalone="no"?><!-- Generator: Gravit.io --><svg xmlns="http://www.w3.org/2000/svg" xmlns:xlink="http://www.w3.org/1999/xlink" width="96" height="96"><path d=" M 31.6 8 L 80.4 8 C 82.4 8 84.3 8.8 85.8 10.2 C 87.2 11.7 88 13.6 88 15.6 L 88 64.4 C 88 66.4 87.2 68.3 85.8 69.8 C 84.3 71.2 82.4 72 80.4 72 L 31.6 72 C 29.6 72 27.7 71.2 26.2 69.8 C 24.8 68.3 24 66.4 24 64.4 L 24 15.6 C 24 13.6 24.8 11.7 26.2 10.2 C 27.7 8.8 29.6 8 31.6 8 Z  M 80 64 L 80 64 L 32 64 L 32 64 L 32 16 L 32 16 L 80 16 L 80 64 Z  M 80 16 M 68 80 C 69.1 80 70.1 80.4 70.8 81.2 C 71.6 81.9 72 82.9 72 84 C 72 85.1 71.6 86.1 70.8 86.8 C 70.1 87.6 69.1 88 68 88 L 15.6 88 C 13.6 88 11.7 87.2 10.2 85.8 C 8.8 84.3 8 82.4 8 80.4 L 8 28 C 8 26.9 8.4 25.9 9.2 25.2 C 9.9 24.4 10.9 24 12 24 C 13.1 24 14.1 24.4 14.8 25.2 C 15.6 25.9 16 26.9 16 28 L 16 80 L 68 80 Z  M 16 80" fill-rule="evenodd" fill="#454545" stroke="none"/><mask id="_mask_4fIhDoMeBR4Tq6i6BVvwEjn1lldUVGyv"><path d=" M 31.6 8 L 80.4 8 C 82.4 8 84.3 8.8 85.8 10.2 C 87.2 11.7 88 13.6 88 15.6 L 88 64.4 C 88 66.4 87.2 68.3 85.8 69.8 C 84.3 71.2 82.4 72 80.4 72 L 31.6 72 C 29.6 72 27.7 71.2 26.2 69.8 C 24.8 68.3 24 66.4 24 64.4 L 24 15.6 C 24 13.6 24.8 11.7 26.2 10.2 C 27.7 8.8 29.6 8 31.6 8 Z  M 80 64 L 80 64 L 32 64 L 32 64 L 32 16 L 32 16 L 80 16 L 80 64 Z  M 80 16 M 68 80 C 69.1 80 70.1 80.4 70.8 81.2 C 71.6 81.9 72 82.9 72 84 C 72 85.1 71.6 86.1 70.8 86.8 C 70.1 87.6 69.1 88 68 88 L 15.6 88 C 13.6 88 11.7 87.2 10.2 85.8 C 8.8 84.3 8 82.4 8 80.4 L 8 28 C 8 26.9 8.4 25.9 9.2 25.2 C 9.9 24.4 10.9 24 12 24 C 13.1 24 14.1 24.4 14.8 25.2 C 15.6 25.9 16 26.9 16 28 L 16 80 L 68 80 Z  M 16 80" fill-rule="evenodd" fill="white" stroke="none"/></mask><path d=" M 31.6 8 L 80.4 8 C 82.4 8 84.3 8.8 85.8 10.2 C 87.2 11.7 88 13.6 88 15.6 L 88 64.4 C 88 66.4 87.2 68.3 85.8 69.8 C 84.3 71.2 82.4 72 80.4 72 L 31.6 72 C 29.6 72 27.7 71.2 26.2 69.8 C 24.8 68.3 24 66.4 24 64.4 L 24 15.6 C 24 13.6 24.8 11.7 26.2 10.2 C 27.7 8.8 29.6 8 31.6 8 Z  M 80 64 L 80 64 L 32 64 L 32 64 L 32 16 L 32 16 L 80 16 L 80 64 Z  M 80 16 M 68 80 C 69.1 80 70.1 80.4 70.8 81.2 C 71.6 81.9 72 82.9 72 84 C 72 85.1 71.6 86.1 70.8 86.8 C 70.1 87.6 69.1 88 68 88 L 15.6 88 C 13.6 88 11.7 87.2 10.2 85.8 C 8.8 84.3 8 82.4 8 80.4 L 8 28 C 8 26.9 8.4 25.9 9.2 25.2 C 9.9 24.4 10.9 24 12 24 C 13.1 24 14.1 24.4 14.8 25.2 C 15.6 25.9 16 26.9 16 28 L 16 80 L 68 80 Z  M 16 80" fill-rule="evenodd" fill="none" stroke="none" stroke-width="16" mask="url(#_mask_4fIhDoMeBR4Tq6i6BVvwEjn1lldUVGyv)"/></svg>
